email-multiple-outline.svg

<svg fill="currentColor" viewBox="0 0 24 24"><path d="M2 6v14h18v2H2c-1.105 0-2-.89-2-2V6zm22-2c0-1.1-.9-2-2-2H6c-1.1 0-2 .9-2 2v12c0 1.1.9 2 2 2h16c1.1 0 2-.9 2-2zm-2 0-8 5-8-5zm0 12H6V6l8 5 8-5z"/></svg>

<svg  viewBox="0 0 24 24" fill="currentColor"><path  d="M2 6V20H20V22H2C.895 22 0 21.11 0 20V6H2M24 4C24 2.9 23.1 2 22 2H6C4.9 2 4 2.9 4 4V16C4 17.1 4.9 18 6 18H22C23.1 18 24 17.1 24 16V4M22 4L14 9L6 4H22M22 16H6V6L14 11L22 6V16Z"/></svg>
